assets/images/Invite/shirt.svg

<svg width="47" height="47" viewBox="0 0 47 47" fill="none" xmlns="http://www.w3.org/2000/svg">
<path fill-rule="evenodd" clip-rule="evenodd" d="M17.1289 9.66059C17.6371 11.5316 20.2092 12.8943 23.2438 12.8943C26.1057 12.8943 28.5546 11.6819 29.2511 9.96971C28.351 9.51296 27.352 9.28543 26.3428 9.30732C25.9149 9.30732 25.568 8.96046 25.568 8.53258C25.568 8.10471 25.9149 7.75785 26.3428 7.75785C32.4701 7.75785 32.5406 1.07036 32.5406 0.785263V0.777516V0.764345C32.5464 0.336473 32.898 -0.00570421 33.3258 7.20685e-05C33.7537 0.00584835 34.0959 0.35739 34.0901 0.785263C34.0901 1.06881 34.1846 7.75785 40.288 7.75785C40.7158 7.75785 41.0627 8.10471 41.0627 8.53258C41.0627 8.96046 40.7158 9.30732 40.288 9.30732C38.9618 9.25988 37.6596 9.67022 36.6002 10.4694L38.661 11.2039C39.1725 11.3795 39.6055 11.7301 39.8835 12.194L46.148 22.5095C46.6628 23.3488 46.5865 24.4227 45.9582 25.1808C44.8403 26.5412 40.3585 27.9257 36.4143 28.5648V42.6208C36.4143 45.0829 31.7551 46.4945 23.6312 46.4945C17.077 46.4945 10.0734 45.4772 10.0734 42.6208V28.6826C5.78681 28.1333 1.75975 26.6729 0.527929 25.1785C-0.0994963 24.4201 -0.174865 23.3466 0.340443 22.508L6.60648 12.1901C6.88592 11.7262 7.31987 11.3757 7.8321 11.2L15.082 8.624C15.5037 8.47163 15.97 8.50311 16.3673 8.71077C16.7447 8.90463 17.0217 9.25007 17.1289 9.66059ZM44.8256 23.316L38.5572 12.9943C38.466 12.8414 38.3236 12.7258 38.1551 12.6681L35.4529 11.709C34.5978 13.0832 34.1272 14.6618 34.0901 16.2799V16.2877V16.3008C34.0843 16.7287 33.7328 17.0709 33.3049 17.0651C32.877 17.0593 32.5349 16.7078 32.5406 16.2799C32.5406 16.087 32.4934 12.9013 30.5163 10.9033C29.4564 13.0129 26.6108 14.4438 23.2438 14.4438C19.4624 14.4438 16.3294 12.641 15.6321 10.0604L8.34188 12.6642C8.17077 12.7207 8.02562 12.8367 7.93282 12.9912L1.66369 23.3137C1.49302 23.5881 1.51607 23.9408 1.72102 24.1907C2.46089 25.0878 5.71553 26.5389 10.0734 27.1215V23.2525C10.0734 22.8246 10.4203 22.4778 10.8481 22.4778C11.276 22.4778 11.6229 22.8246 11.6229 23.2525V42.6208C11.6229 43.2166 14.5792 44.945 23.6312 44.945C32.0363 44.945 34.8648 43.349 34.8648 42.6208V23.2525C34.8648 22.8246 35.2117 22.4778 35.6396 22.4778C36.0674 22.4778 36.4143 22.8246 36.4143 23.2525V26.9968C40.7799 26.267 44.1732 24.9127 44.7636 24.1938C44.9704 23.9448 44.9953 23.5916 44.8256 23.316ZM36.7598 8.53258C35.1751 7.69534 33.9504 6.30861 33.3154 4.63258C32.6804 6.30861 31.4556 7.69534 29.8709 8.53258C31.4556 9.36982 32.6804 10.7566 33.3154 12.4326C33.9504 10.7566 35.1751 9.36982 36.7598 8.53258ZM30.9911 23.2525C26.4202 23.2525 26.3427 28.454 26.3427 28.6756C26.344 29.1035 25.9982 29.4514 25.5703 29.4526C25.1424 29.4539 24.7945 29.1081 24.7933 28.6802V28.6756C24.7933 28.4556 24.7158 23.2525 20.1449 23.2525C19.717 23.2525 19.3701 22.9056 19.3701 22.4777C19.3701 22.0499 19.717 21.703 20.1449 21.703C24.7158 21.703 24.7933 16.5015 24.7933 16.2799C24.7924 16.0031 24.9393 15.7469 25.1786 15.6078C25.4179 15.4687 25.7132 15.4678 25.9533 15.6055C26.1935 15.7431 26.3419 15.9984 26.3427 16.2752V16.2799C26.3427 16.4999 26.4202 21.703 30.9911 21.703C31.419 21.703 31.7658 22.0499 31.7658 22.4777C31.7658 22.9056 31.419 23.2525 30.9911 23.2525ZM25.568 19.7871C25.082 20.9039 24.2634 21.8435 23.2236 22.4777C24.2634 23.112 25.082 24.0516 25.568 25.1684C26.0539 24.0516 26.8726 23.112 27.9123 22.4777C26.8726 21.8435 26.0539 20.9039 25.568 19.7871ZM28.667 30.2251V31.7746C28.667 32.2024 29.0139 32.5493 29.4418 32.5493C29.8696 32.5493 30.2165 32.2024 30.2165 31.7746V30.2251C30.2165 29.7972 29.8696 29.4504 29.4418 29.4504C29.0139 29.4504 28.667 29.7972 28.667 30.2251ZM28.667 34.8735C28.667 34.4456 29.0139 34.0988 29.4418 34.0988C29.8696 34.0988 30.2165 34.4456 30.2165 34.8735V36.423C30.2165 36.8508 29.8696 37.1977 29.4418 37.1977C29.0139 37.1977 28.667 36.8508 28.667 36.423V34.8735ZM32.5407 32.5492H30.9912C30.5633 32.5492 30.2165 32.8961 30.2165 33.324C30.2165 33.7519 30.5633 34.0987 30.9912 34.0987H32.5407C32.9685 34.0987 33.3154 33.7519 33.3154 33.324C33.3154 32.8961 32.9685 32.5492 32.5407 32.5492ZM26.3428 32.5492H27.8922C28.3201 32.5492 28.6669 32.8961 28.6669 33.324C28.6669 33.7519 28.3201 34.0987 27.8922 34.0987H26.3428C25.9149 34.0987 25.568 33.7519 25.568 33.324C25.568 32.8961 25.9149 32.5492 26.3428 32.5492Z" fill="#2F70B6"/>
</svg>

<svg xmlns="http://www.w3.org/2000/svg" width="47" height="47" fill="none" viewBox="0 0 47 47"><path fill="#2F70B6" fill-rule="evenodd" d="M17.129 9.66c.508 1.872 3.08 3.234 6.115 3.234 2.862 0 5.31-1.212 6.007-2.924-.9-.457-1.899-.685-2.908-.663a.775.775 0 1 1 0-1.55c6.127 0 6.198-6.687 6.198-6.972V.764a.775.775 0 0 1 1.55.021c0 .284.094 6.973 6.197 6.973a.775.775 0 0 1 0 1.55 5.78 5.78 0 0 0-3.688 1.161l2.061.735c.511.175.944.526 1.222.99l6.265 10.315c.515.84.438 1.914-.19 2.672-1.118 1.36-5.6 2.745-9.544 3.384V42.62c0 2.462-4.659 3.873-12.783 3.873-6.554 0-13.558-1.017-13.558-3.873V28.683c-4.286-.55-8.313-2.01-9.545-3.505a2.3 2.3 0 0 1-.188-2.67L6.606 12.19c.28-.464.714-.814 1.226-.99l7.25-2.576a1.6 1.6 0 0 1 1.285.087c.378.194.655.54.762.95zm27.697 13.656l-6.269-10.322a.752.752 0 0 0-.402-.326l-2.702-.959a9.044 9.044 0 0 0-1.363 4.57v.022a.775.775 0 1 1-1.55-.021c0-.193-.047-3.379-2.024-5.377-1.06 2.11-3.905 3.54-7.272 3.54-3.782 0-6.915-1.802-7.612-4.383l-7.29 2.604a.752.752 0 0 0-.41.327L1.665 23.314a.755.755 0 0 0 .057.877c.74.897 3.995 2.348 8.352 2.93v-3.868a.775.775 0 0 1 1.55 0V42.62c0 .596 2.956 2.324 12.008 2.324 8.405 0 11.234-1.596 11.234-2.324V23.252a.775.775 0 0 1 1.55 0v3.745c4.365-.73 7.758-2.084 8.349-2.803a.755.755 0 0 0 .062-.878zM36.76 8.533a7.36 7.36 0 0 1-3.445-3.9 7.36 7.36 0 0 1-3.444 3.9 7.36 7.36 0 0 1 3.444 3.9 7.36 7.36 0 0 1 3.445-3.9zm-5.769 14.72c-4.57 0-4.648 5.201-4.648 5.423a.775.775 0 1 1-1.55.004v-.004c0-.22-.077-5.423-4.648-5.423a.775.775 0 0 1 0-1.55c4.57 0 4.648-5.201 4.648-5.423a.774.774 0 1 1 1.55-.005v.005c0 .22.077 5.423 4.648 5.423a.775.775 0 0 1 0 1.55zm-5.423-3.466a5.917 5.917 0 0 1-2.344 2.69 5.918 5.918 0 0 1 2.344 2.691 5.917 5.917 0 0 1 2.344-2.69 5.917 5.917 0 0 1-2.344-2.69zm3.099 10.438v1.55a.775.775 0 0 0 1.55 0v-1.55a.775.775 0 0 0-1.55 0zm0 4.648a.775.775 0 0 1 1.55 0v1.55a.775.775 0 0 1-1.55 0v-1.55zm3.874-2.324h-1.55a.775.775 0 0 0 0 1.55h1.55a.775.775 0 0 0 0-1.55zm-6.198 0h1.55a.775.775 0 0 1 0 1.55h-1.55a.775.775 0 1 1 0-1.55z" clip-rule="evenodd"/></svg>
